images/init5.svg

<svg width="40" height="40" viewBox="0 0 40 40" fill="none" xmlns="http://www.w3.org/2000/svg">
<circle cx="20" cy="20" r="20" fill="#F0F5FF"/>
<path d="M30.4224 23.7516L28.4706 21.7996L24.433 25.8372C23.7123 26.558 22.8077 27.0279 21.8251 27.2037L24.3977 29.7763C24.6333 30.012 25.0155 30.012 25.2511 29.7763L30.4224 24.6051C30.6581 24.3693 30.6581 23.9871 30.4224 23.7516ZM27.6756 20.8878C28.3559 20.2076 28.3561 19.1007 27.6765 18.4201L27.6742 18.4177C27.509 18.2522 27.3123 18.1216 27.0956 18.0336C27.2811 17.5645 27.3202 16.7712 26.7059 16.1567C26.7043 16.1551 26.7027 16.1533 26.701 16.1518C26.5366 15.9879 26.3411 15.8585 26.126 15.7712C26.3114 15.3023 26.3507 14.5088 25.7367 13.8947L25.7356 13.8936C25.5673 13.7253 25.3707 13.5955 25.1565 13.5088C25.3419 13.0397 25.381 12.2462 24.7667 11.6317C24.7665 11.6317 24.7665 11.6316 24.7664 11.6316L24.7659 11.6311C24.0853 10.9504 22.9779 10.9504 22.2972 11.6311L21.153 12.7752L21.7381 13.3603C22.7131 14.3353 22.7131 15.9217 21.7382 16.8967C21.4101 17.2247 21.007 17.4501 20.5675 17.5574C20.4592 18 20.2313 18.4043 19.9087 18.7261C19.5811 19.0537 19.1786 19.279 18.7397 19.3865C18.6323 19.8252 18.4069 20.2279 18.0794 20.5554C17.7517 20.8831 17.3492 21.1083 16.9103 21.2158C16.803 21.6546 16.5776 22.0572 16.25 22.3849C15.7778 22.857 15.1498 23.1172 14.4819 23.1172C13.8139 23.1172 13.186 22.8571 12.7137 22.3847L12.1286 21.7996L10.1768 23.7516C9.94106 23.9873 9.94106 24.3693 10.1768 24.6051L15.3479 29.7763C15.5837 30.012 15.9658 30.0119 16.2015 29.7763L19.9032 26.0747H20.9461C21.941 26.0747 22.8762 25.6871 23.5797 24.9838L27.6756 20.8878Z" fill="#BDD0EA"/>
<path d="M13.5673 21.5311C14.0724 22.0363 14.8915 22.0363 15.3967 21.5311C15.9019 21.026 15.9019 20.207 15.3967 19.7017C15.9019 20.207 16.7209 20.207 17.2261 19.7017C17.7312 19.1966 17.7312 18.3775 17.2261 17.8724C17.7312 18.3775 18.5504 18.3775 19.0555 17.8724C19.5606 17.3673 19.5606 16.5482 19.0555 16.0431C19.5606 16.5482 20.3797 16.5482 20.8848 16.0431C21.3901 15.5378 21.3901 14.7188 20.8848 14.2136L18.3055 11.6343C17.8004 11.1291 16.9813 11.1291 16.4762 11.6343C15.9711 12.1394 15.9711 12.9585 16.4762 13.4636L16.7993 13.7869C16.2942 13.2816 15.4751 13.2816 14.97 13.7869C14.4649 14.292 14.4649 15.1111 14.97 15.6162L15.6164 16.2626C15.1112 15.7575 14.2921 15.7575 13.787 16.2626C13.2817 16.7677 13.2817 17.5868 13.787 18.092L14.4334 18.7385C13.9282 18.2333 13.1092 18.2333 12.6039 18.7385C12.0988 19.2436 12.0988 20.0626 12.6039 20.5678L13.5673 21.5311ZM21.4439 10.7773C21.5325 10.6889 21.6267 10.6063 21.7258 10.5298L21.3728 10.1768C21.2832 10.0872 21.1678 10.0281 21.0428 10.0078C20.9178 9.9875 20.7895 10.007 20.6763 10.0636L19.1867 10.8084L20.2997 11.9216L21.4439 10.7773Z" fill="#BDD0EA"/>
</svg>

<svg width="40" height="40" fill="none" xmlns="http://www.w3.org/2000/svg"><circle cx="20" cy="20" r="20" fill="#F0F5FF"/><path d="M30.422 23.752L28.471 21.8l-4.038 4.037a4.895 4.895 0 01-2.608 1.367l2.573 2.572a.603.603 0 00.853 0l5.171-5.17a.603.603 0 000-.854zm-2.746-2.864c.68-.68.68-1.787 0-2.468l-.002-.002a1.745 1.745 0 00-.578-.384c.185-.47.224-1.263-.39-1.877l-.005-.005a1.743 1.743 0 00-.575-.38c.185-.47.225-1.263-.39-1.877v-.001a1.743 1.743 0 00-.58-.385c.186-.47.225-1.263-.39-1.877a1.747 1.747 0 00-2.469 0l-1.144 1.143.585.585a2.504 2.504 0 01-1.17 4.197 2.485 2.485 0 01-.66 1.17c-.327.327-.73.552-1.168.66a2.485 2.485 0 01-.66 1.168c-.328.328-.73.553-1.17.66a2.484 2.484 0 01-.66 1.17c-.472.472-1.1.732-1.768.732-.668 0-1.296-.26-1.768-.732l-.585-.585-1.952 1.952a.603.603 0 000 .853l5.17 5.171a.604.604 0 00.854 0l3.702-3.701h1.043a3.7 3.7 0 002.634-1.091l4.096-4.096z" fill="#BDD0EA"/><path d="M13.567 21.531a1.294 1.294 0 101.83-1.83 1.293 1.293 0 101.83-1.829 1.294 1.294 0 001.828-1.829 1.294 1.294 0 001.83-1.83l-2.58-2.579a1.293 1.293 0 10-1.829 1.83l.323.323a1.293 1.293 0 10-1.829 1.83l.646.646a1.294 1.294 0 00-1.829 1.829l.646.646a1.294 1.294 0 00-1.83 1.83l.964.963zm7.877-10.754a3.02 3.02 0 01.282-.247l-.353-.353a.603.603 0 00-.697-.113l-1.49.744 1.114 1.114 1.144-1.145z" fill="#BDD0EA"/></svg>
